X:79
T:Cliffs of Moher, The
R:jig
H:See also #224, #196, #401
H:Bar 8 also played |EDB, A,3|
Z:id:hn-jig-79
M:6/8
K:Ador
aga bag|eaf ged|c2A BAG|EFG ABd|eaa bag|eaf ged|c2A BAG|EFG A3:|
|:efe dBA|efe dBA|GAB dBA|GAB dBd|1 efe dBA|efe dBA|GAB dBG|
EFG A3:|2 ~e3 dee|cee Bee|EFG BAG|EDB, A,3||
<end>
<start>
